public/images/stories/logo/alfen.svg

<svg aria-hidden="true" focusable="false" class="logo" viewBox="0 0 165 40">

    <defs><linearGradient x1="0%" y1="100%" x2="0%" y2="0%" id="eha"><stop stop-color="#005387" offset="0%"></stop><stop stop-color="#00B4F1" offset="100%"></stop></linearGradient><linearGradient x1="100%" y1="0%" x2="0%" y2="100%" id="ehb"><stop stop-color="#00B4F1" offset="0%"></stop><stop stop-color="#005387" offset="100%"></stop></linearGradient></defs><g class="ehlogo__group" fill="none" fill-rule="evenodd"><g class="ehlogo__paths"><path class="ehlogo__text" d="M81.933 9.875a1.3 1.3 0 01.724.21c.31.207.377.457.377.628v13.912c0 .772.183 1.293.545 1.548.395.277 1.154.418 2.246.418h7.307c.271 0 .517.072.727.211.313.21.377.458.377.628v1.691c0 .389-.18.575-.332.662-.158.095-.391.16-.736.199-.274.05-.693.1-1.26.149-.546.04-1.137.08-1.775.117-.64.036-1.294.062-1.959.08-.665.019-1.264.029-1.795.029-1.291 0-2.522-.073-3.653-.215-1.142-.147-2.15-.429-2.995-.836-.868-.42-1.564-1.011-2.067-1.757-.51-.751-.768-1.734-.768-2.924V10.713c0-.17.063-.42.375-.627.21-.14.455-.211.727-.211zm46.873-.21c1.245 0 2.229.013 3.01.04.81.025 1.503.058 2.073.092.576.036 1.057.074 1.448.12l1.051.122c.337.038.577.103.739.198.15.088.327.273.327.662v1.692c0 .17-.063.416-.372.625-.212.14-.457.212-.729.212h-8.102c-1.097 0-1.86.141-2.271.42-.371.257-.56.777-.56 1.546v9.232c0 .768.189 1.287.562 1.544.409.28 1.172.422 2.269.422h8.102c.272 0 .517.072.726.21.312.21.375.456.375.627v1.692c0 .39-.176.575-.33.662-.154.095-.39.16-.734.199l-1.053.119c-.39.045-.872.085-1.448.12-.57.035-1.262.067-2.075.093-.807.028-1.819.042-3.008.042-1.293 0-2.525-.072-3.66-.214-1.147-.148-2.16-.429-3.01-.836-.872-.42-1.574-1.01-2.08-1.758-.515-.754-.775-1.736-.775-2.922v-9.232c0-1.184.26-2.169.775-2.923.506-.748 1.208-1.337 2.08-1.759.85-.407 1.863-.689 3.008-.834a29.69 29.69 0 013.662-.212zm19.347.21c.466 0 .836.061 1.132.184.305.126.591.389.871.798l9.205 13.52.001-13.69c0-.244.103-.812 1.065-.812h3.416c.96 0 1.065.568 1.065.813v18.09c0 .277-.102.677-.592 1.009-.36.238-.797.358-1.307.358h-4.013c-.49 0-.957-.043-1.389-.124-.494-.097-.929-.423-1.29-.968l-8.81-12.87v13.123c0 .167-.06.41-.342.62-.203.144-.447.219-.72.219h-3.377c-.273 0-.516-.073-.73-.213-.309-.209-.374-.457-.374-.626V11.242c0-.278.102-.681.592-1.011.357-.237.795-.356 1.305-.356zm-41.431-.21c1.241 0 2.225.013 3.007.04.811.025 1.503.056 2.073.092a27.3 27.3 0 011.445.12l1.055.12c.336.04.579.105.739.2.149.088.328.276.328.662v1.692c0 .17-.066.416-.374.625-.208.139-.459.212-.729.212h-8.104c-1.097 0-1.86.141-2.27.42-.37.255-.56.777-.56 1.546v13.912c0 .171-.064.421-.377.626-.213.14-.459.213-.731.213H98.3c-.27 0-.517-.073-.729-.213-.312-.205-.376-.455-.376-.626V15.394c0-1.184.258-2.168.772-2.923.509-.75 1.21-1.339 2.081-1.759.853-.407 1.866-.689 3.01-.834a29.632 29.632 0 013.663-.212zm-44.339 0c.466 0 .93.026 1.481.08.57.057 1.131.18 1.663.374a5.492 5.492 0 011.536.852c.432.341.78.792 1.03 1.345l.103.243 6.574 16.828a.68.68 0 01-.345.594c-.155.09-.326.14-.524.157l-.154.006h-4.21c-.248 0-.466-.062-.65-.182a1.118 1.118 0 01-.336-.346l-.054-.103-1.758-4.844h-8.706l-1.754 4.824a1.065 1.065 0 01-.397.469 1.121 1.121 0 01-.504.175l-.144.007h-4.212c-.263 0-.49-.055-.67-.16a.68.68 0 01-.344-.493L50 29.387v-.105l.06-.14 6.515-16.585c.262-.667.64-1.201 1.129-1.586.477-.37.995-.658 1.538-.852a6.857 6.857 0 011.663-.375c.55-.053 1.014-.08 1.478-.08zm51.407 8.28c.277 0 .52.07.728.208.31.207.375.454.375.627v1.905c0 .172-.065.419-.375.626-.209.14-.453.21-.728.21h-7.737v-3.576zm22.088 0c.276 0 .52.07.726.208.31.207.375.456.375.627v1.905c0 .17-.064.418-.375.626a1.28 1.28 0 01-.726.21h-7.999v-3.576zm-73.493-4.573c-.195 0-.252.034-.252.035 0 0-.029.026-.068.118l-.025.063-2.708 7.452h6.11l-2.71-7.447c-.052-.15-.093-.186-.099-.19 0 0-.06-.031-.248-.031z" fill="url(#eha)"></path><path class="ehlogo__shield" d="M24.638 21.828c5.665.952 9.744 3.27 9.744 3.27l-.219.376C28.654 34.826 20.084 39.949 20 40c-.087-.052-8.886-5.311-14.383-14.903.001 0 4.078-2.317 9.743-3.269 4.422 8.812 4.63 17.64 4.64 18.15l-.001-.009.001-.018c.015-.72.273-9.188 4.454-17.75zM40 5.096v.039c-.014.7-.294 10.667-5.618 19.962 0 0-4.03-2.4-7.681-6.868C32.224 9.718 40 5.096 40 5.096zM.019 5.107c.423.256 7.914 4.854 13.278 13.123-3.65 4.467-7.68 6.867-7.68 6.867l-.195-.344C.284 15.558.013 5.827.001 5.135L0 5.096c.04-.023.292-.164.733-.387l.236-.118C3.568 3.304 11.105 0 19.999 0h.002L20 .002v.02c-.007.344-.125 4.904-2.063 10.113C7.859 9.57 0 5.096 0 5.096zM20 0c8.895 0 16.432 3.304 19.03 4.591l.236.118c.478.242.733.387.733.387s-7.86 4.475-17.938 5.039C20.125 4.925 20.008.364 20.002.02z" fill="url(#ehb)"></path></g></g></svg>

<svg width="165" height="40" viewBox="0 0 165 40" fill="none" xmlns="http://www.w3.org/2000/svg">
    <path fill-rule="evenodd" clip-rule="evenodd" d="M81.933 9.875C82.1898 9.87196 82.4417 9.94503 82.657 10.085C82.967 10.292 83.034 10.542 83.034 10.713V24.625C83.034 25.397 83.217 25.918 83.579 26.173C83.974 26.45 84.733 26.591 85.825 26.591H93.132C93.403 26.591 93.649 26.663 93.859 26.802C94.172 27.012 94.236 27.26 94.236 27.43V29.121C94.236 29.51 94.056 29.696 93.904 29.783C93.746 29.878 93.513 29.943 93.168 29.982C92.894 30.032 92.475 30.082 91.908 30.131C91.362 30.171 90.771 30.211 90.133 30.248C89.493 30.284 88.839 30.31 88.174 30.328C87.509 30.347 86.91 30.357 86.379 30.357C85.088 30.357 83.857 30.284 82.726 30.142C81.584 29.995 80.576 29.713 79.731 29.306C78.863 28.886 78.167 28.295 77.664 27.549C77.154 26.798 76.896 25.815 76.896 24.625V10.713C76.896 10.543 76.959 10.293 77.271 10.086C77.481 9.946 77.726 9.875 77.998 9.875H81.933ZM128.806 9.665C130.051 9.665 131.035 9.678 131.816 9.705C132.626 9.73 133.319 9.763 133.889 9.797C134.465 9.833 134.946 9.871 135.337 9.917L136.388 10.039C136.725 10.077 136.965 10.142 137.127 10.237C137.277 10.325 137.454 10.51 137.454 10.899V12.591C137.454 12.761 137.391 13.007 137.082 13.216C136.87 13.356 136.625 13.428 136.353 13.428H128.251C127.154 13.428 126.391 13.569 125.98 13.848C125.609 14.105 125.42 14.625 125.42 15.394V24.626C125.42 25.394 125.609 25.913 125.982 26.17C126.391 26.45 127.154 26.592 128.251 26.592H136.353C136.625 26.592 136.87 26.664 137.079 26.802C137.391 27.012 137.454 27.258 137.454 27.429V29.121C137.454 29.511 137.278 29.696 137.124 29.783C136.97 29.878 136.734 29.943 136.39 29.982L135.337 30.101C134.947 30.146 134.465 30.186 133.889 30.221C133.319 30.256 132.627 30.288 131.814 30.314C131.007 30.342 129.995 30.356 128.806 30.356C127.513 30.356 126.281 30.284 125.146 30.142C123.999 29.994 122.986 29.713 122.136 29.306C121.264 28.886 120.562 28.296 120.056 27.548C119.541 26.794 119.281 25.812 119.281 24.626V15.394C119.281 14.21 119.541 13.225 120.056 12.471C120.562 11.723 121.264 11.134 122.136 10.712C122.986 10.305 123.999 10.023 125.144 9.878C126.359 9.73193 127.582 9.66112 128.806 9.666V9.665ZM148.153 9.875C148.619 9.875 148.989 9.936 149.285 10.059C149.59 10.185 149.876 10.448 150.156 10.857L159.361 24.377L159.362 10.687C159.362 10.443 159.465 9.875 160.427 9.875H163.843C164.803 9.875 164.908 10.443 164.908 10.688V28.778C164.908 29.055 164.806 29.455 164.316 29.787C163.956 30.025 163.519 30.145 163.009 30.145H158.996C158.506 30.145 158.039 30.102 157.607 30.021C157.113 29.924 156.678 29.598 156.317 29.053L147.507 16.183V29.306C147.507 29.473 147.447 29.716 147.165 29.926C146.962 30.07 146.718 30.145 146.445 30.145H143.068C142.795 30.145 142.552 30.072 142.338 29.932C142.029 29.723 141.964 29.475 141.964 29.306V11.242C141.964 10.964 142.066 10.561 142.556 10.231C142.913 9.994 143.351 9.875 143.861 9.875H148.153ZM106.722 9.665C107.963 9.665 108.947 9.678 109.729 9.705C110.54 9.73 111.232 9.761 111.802 9.797C112.285 9.8242 112.766 9.86422 113.247 9.917L114.302 10.037C114.638 10.077 114.881 10.142 115.041 10.237C115.19 10.325 115.369 10.513 115.369 10.899V12.591C115.369 12.761 115.303 13.007 114.995 13.216C114.787 13.355 114.536 13.428 114.266 13.428H106.162C105.065 13.428 104.302 13.569 103.892 13.848C103.522 14.103 103.332 14.625 103.332 15.394V29.306C103.332 29.477 103.268 29.727 102.955 29.932C102.742 30.072 102.496 30.145 102.224 30.145H98.3C98.03 30.145 97.783 30.072 97.571 29.932C97.259 29.727 97.195 29.477 97.195 29.306V15.394C97.195 14.21 97.453 13.226 97.967 12.471C98.476 11.721 99.177 11.132 100.048 10.712C100.901 10.305 101.914 10.023 103.058 9.878C104.273 9.73174 105.497 9.66093 106.721 9.666L106.722 9.665ZM62.383 9.665C62.849 9.665 63.313 9.691 63.864 9.745C64.434 9.802 64.995 9.925 65.527 10.119C66.0814 10.3188 66.6 10.6064 67.063 10.971C67.495 11.312 67.843 11.763 68.093 12.316L68.196 12.559L74.77 29.387C74.7704 29.5077 74.7386 29.6264 74.678 29.7308C74.6174 29.8352 74.5301 29.9215 74.425 29.981C74.27 30.071 74.099 30.121 73.901 30.138L73.747 30.144H69.537C69.289 30.144 69.071 30.082 68.887 29.962C68.7512 29.8725 68.6365 29.7544 68.551 29.616L68.497 29.513L66.739 24.669H58.033L56.279 29.493C56.1956 29.6849 56.0575 29.8481 55.882 29.962C55.7305 30.06 55.5576 30.1201 55.378 30.137L55.234 30.144H51.022C50.759 30.144 50.532 30.089 50.352 29.984C50.2607 29.9337 50.1822 29.8631 50.1226 29.7776C50.0629 29.6921 50.0237 29.594 50.008 29.491L50 29.387V29.282L50.06 29.142L56.575 12.557C56.837 11.89 57.215 11.356 57.704 10.971C58.181 10.601 58.699 10.313 59.242 10.119C59.7786 9.92531 60.3372 9.79934 60.905 9.744C61.455 9.691 61.919 9.664 62.383 9.664V9.665ZM113.79 17.945C114.067 17.945 114.31 18.015 114.518 18.153C114.828 18.36 114.893 18.607 114.893 18.78V20.685C114.893 20.857 114.828 21.104 114.518 21.311C114.309 21.451 114.065 21.521 113.79 21.521H106.053V17.945H113.79ZM135.878 17.945C136.154 17.945 136.398 18.015 136.604 18.153C136.914 18.36 136.979 18.609 136.979 18.78V20.685C136.979 20.855 136.915 21.103 136.604 21.311C136.389 21.4525 136.136 21.5257 135.878 21.521H127.879V17.945H135.878ZM62.385 13.372C62.19 13.372 62.133 13.406 62.133 13.407C62.133 13.407 62.104 13.433 62.065 13.525L62.04 13.588L59.332 21.04H65.442L62.732 13.593C62.68 13.443 62.639 13.407 62.633 13.403C62.633 13.403 62.573 13.372 62.385 13.372Z" fill="white"/>
    <path fill-rule="evenodd" clip-rule="evenodd" d="M24.638 21.828C30.303 22.78 34.382 25.098 34.382 25.098L34.163 25.474C28.654 34.826 20.084 39.949 20 40C19.913 39.948 11.114 34.689 5.617 25.097C5.618 25.097 9.695 22.78 15.36 21.828C19.782 30.64 19.99 39.468 20 39.978L19.999 39.969L20 39.951C20.015 39.231 20.273 30.763 24.454 22.201L24.638 21.828ZM40 5.096V5.135C39.986 5.835 39.706 15.803 34.382 25.098C34.382 25.098 30.352 22.697 26.701 18.229C32.224 9.718 40 5.096 40 5.096ZM0.019 5.107C0.442 5.363 7.933 9.961 13.297 18.23C9.647 22.697 5.617 25.097 5.617 25.097L5.422 24.753C0.284 15.558 0.013 5.827 0.001 5.135L0 5.096C0.04 5.073 0.292 4.932 0.733 4.709L0.969 4.591C3.568 3.304 11.105 0 19.999 0H20.001L20 0.002V0.022C19.993 0.366 19.875 4.926 17.937 10.135C7.859 9.57 0 5.096 0 5.096L0.019 5.107ZM19.999 0C28.894 0 36.432 3.304 39.03 4.591L39.266 4.709C39.744 4.951 40 5.096 40 5.096C40 5.096 32.139 9.571 22.061 10.135C20.125 4.925 20.008 0.364 20.002 0.02L19.999 0Z" fill="white"/>
</svg>
